SVG/edit.svg

<?xml version="1.0" encoding="utf-8"?>
<!-- Generated by IcoMoon.io -->
<!DOCTYPE svg PUBLIC "-//W3C//DTD SVG 1.1//EN" "http://www.w3.org/Graphics/SVG/1.1/DTD/svg11.dtd">
<svg version="1.1" xmlns="http://www.w3.org/2000/svg" xmlns:xlink="http://www.w3.org/1999/xlink" width="14" height="14" viewBox="0 0 14 14">
<path fill="#444444" d="M6.938 9.25l0.906-0.906-1.187-1.187-0.906 0.906v0.438h0.75v0.75h0.438zM10.375 3.625q-0.125-0.125-0.258 0.008l-2.734 2.734q-0.133 0.133-0.008 0.258t0.258-0.008l2.734-2.734q0.133-0.133 0.008-0.258zM11 8.266v1.484q0 0.93-0.66 1.59t-1.59 0.66h-6.5q-0.93 0-1.59-0.66t-0.66-1.59v-6.5q0-0.93 0.66-1.59t1.59-0.66h6.5q0.492 0 0.914 0.195 0.117 0.055 0.141 0.18 0.023 0.133-0.070 0.227l-0.383 0.383q-0.109 0.109-0.25 0.062-0.18-0.047-0.352-0.047h-6.5q-0.516 0-0.883 0.367t-0.367 0.883v6.5q0 0.516 0.367 0.883t0.883 0.367h6.5q0.516 0 0.883-0.367t0.367-0.883v-0.984q0-0.102 0.070-0.172l0.5-0.5q0.117-0.117 0.273-0.055t0.156 0.227zM10.25 2.5l2.25 2.25-5.25 5.25h-2.25v-2.25zM13.719 3.531l-0.719 0.719-2.25-2.25 0.719-0.719q0.219-0.219 0.531-0.219t0.531 0.219l1.187 1.187q0.219 0.219 0.219 0.531t-0.219 0.531z"></path>
</svg>

<svg xmlns="http://www.w3.org/2000/svg" viewBox="0 0 14 14"><path d="M6.938 9.25l.906-.906-1.187-1.187-.906.906V8.5h.75v.75h.44zm3.437-5.625q-.125-.125-.258.008L7.383 6.367q-.133.133-.008.258t.258-.008l2.734-2.734q.133-.133.008-.258zM11 8.265V9.75q0 .93-.66 1.59T8.75 12h-6.5q-.93 0-1.59-.66T0 9.75v-6.5q0-.93.66-1.59T2.25 1h6.5q.492 0 .914.195.117.055.14.18.024.133-.07.227l-.382.383q-.11.11-.25.062Q8.922 2 8.75 2h-6.5q-.516 0-.883.367T1 3.25v6.5q0 .516.367.883T2.25 11h6.5q.516 0 .883-.367T10 9.75v-.984q0-.102.07-.172l.5-.5q.117-.117.273-.055t.156.226zM10.25 2.5l2.25 2.25L7.25 10H5V7.75zm3.47 1.03l-.72.72L10.75 2l.72-.72q.218-.218.53-.218t.53.22l1.188 1.186q.22.22.22.53t-.22.532z" /></svg>
